svg/fluentui-system-icons/ic_fluent_person_support_20_filled.svg

<svg width="20" height="20" viewBox="0 0 20 20" fill="none" xmlns="http://www.w3.org/2000/svg">
<path d="M6.53039 4.00822C7.22083 2.80809 8.51604 2 10 2C12.2091 2 14 3.79086 14 6C14 8.20914 12.2091 10 10 10C8.40519 10 7.02836 9.06667 6.38595 7.71642C6.13809 7.89743 5.83262 8.00427 5.5022 8.00427H5.0022V8.25891C5.0022 8.44889 5.07392 8.62212 5.19176 8.75301C5.32913 8.59883 5.52931 8.50171 5.7522 8.50171C6.16641 8.50171 6.5022 8.83711 6.5022 9.25085C6.5022 9.6646 6.16641 10 5.7522 10C5.7278 10 5.70368 9.99884 5.67989 9.99656C4.74788 9.96442 4.0022 9.19875 4.0022 8.25891L4.0022 4.50744C4.0022 4.2313 4.22606 4.00744 4.5022 4.00744L6.5022 4.00744C6.51166 4.00744 6.52106 4.0077 6.53039 4.00822ZM5.0022 7.00427H5.5022C5.77834 7.00427 6.0022 6.78042 6.0022 6.50427V6.13386C6.00074 6.08942 6 6.04479 6 6C6 5.95521 6.00074 5.91058 6.0022 5.86614V5.00744L5.0022 5.00744L5.0022 7.00427ZM3 13C3 11.8869 3.90315 11 5.00873 11L15 11C16.1045 11 17 11.8956 17 13C17 14.6912 16.1672 15.9663 14.865 16.7966C13.583 17.614 11.8547 18 10 18C8.14526 18 6.41697 17.614 5.13499 16.7966C3.83281 15.9663 3 14.6912 3 13Z" fill="#212121"/>
</svg>

<svg xmlns="http://www.w3.org/2000/svg" width="20" height="20"><path d="M6.53 4.008a4 4 0 1 1-.144 3.708 1.493 1.493 0 0 1-.884.288h-.5v.255c0 .19.072.363.19.494a.749.749 0 0 1 1.31.498.75.75 0 0 1-.822.746 1.739 1.739 0 0 1-1.678-1.738V4.507a.5.5 0 0 1 .5-.5h2l.028.001ZM5.002 7.004h.5a.5.5 0 0 0 .5-.5v-.37a4.077 4.077 0 0 1 0-.268v-.859h-1v1.997ZM3 13c0-1.113.903-2 2.009-2H15a2 2 0 0 1 2 2c0 1.691-.833 2.966-2.135 3.797C13.583 17.614 11.855 18 10 18c-1.855 0-3.583-.386-4.865-1.203C3.833 15.967 3 14.69 3 13Z"/></svg>
